X:47
T:Sunny Banks, The
E:8
R:reel
I:speed 350
M:C|
K:D
B|AF~F2 d2 cA|(3Bcd AF ~G3 B|AF~F2 d2 cA|BdAG FDDB|\
AF~F2 d2 cA|(3Bcd AF ~G3 B|AF~F2 d2 cA| BdAF D3 ||*
e|f2 ed cA ~A2|fdef g2 ag|f2 ed cA~A2|(3Bcd AG FD ~D2|\
f2 ed cA ~A2|fdef g2 ag|fded cA~A2|BdAG FD ~D2||**
<end>
<start>
